src/actions/24/sort-presence.svg

<svg xmlns="http://www.w3.org/2000/svg" viewBox="0 0 24 24">
  <defs id="defs3051">
    <style type="text/css" id="current-color-scheme">
      .ColorScheme-Text {
        color:#363636;
      }
      </style>
  </defs>
 <path 
    style="fill:currentColor;fill-opacity:1;stroke:none" 
	d="M 9 5 L 9 6 L 21 6 L 21 5 L 9 5 z M 9 7 L 9 8 L 14 8 L 14 7 L 9 7 z M 9 11 L 9 12 L 21 12 L 21 11 L 9 11 z M 9 13 L 9 14 L 15 14 L 15 13 L 9 13 z M 9 17 L 9 18 L 21 18 L 21 17 L 9 17 z M 9 19 L 9 20 L 18 20 L 18 19 L 9 19 z "
    class="ColorScheme-Text"
    />
  <path
     style="opacity:1;fill:#aac69f;fill-opacity:1;stroke:none"
     d="M 6.5 5 C 5.67158 5 5.00001 5.67157 5 6.5 C 5.00001 7.32843 5.67158 8 6.5 8 C 7.32842 8 7.99999 7.32843 8 6.5 C 7.99999 5.67157 7.32842 5 6.5 5 z M 6.5 11 C 5.67157 11 5 11.67157 5 12.5 C 5 13.32843 5.67157 14 6.5 14 C 7.32843 14 8 13.32843 8 12.5 C 8 11.67157 7.32843 11 6.5 11 z "
     id="path10" />
  <path
     style="opacity:1;fill:#d19494;fill-opacity:1;stroke:none"
     d="M 6.5 17 C 5.67157 17 5 17.67157 5 18.5 C 5 19.32843 5.67157 20 6.5 20 C 7.32843 20 8 19.32843 8 18.5 C 8 17.67157 7.32843 17 6.5 17 z M 19 20 L 19 21 L 21 21 L 21 20 L 19 20 z "
     id="path12" />
</svg>

<svg xmlns="http://www.w3.org/2000/svg" viewBox="0 0 24 24">
    <path d="M9 5v1h12V5H9zm0 2v1h5V7H9zm0 4v1h12v-1H9zm0 2v1h6v-1H9zm0 4v1h12v-1H9zm0 2v1h9v-1H9z" style="fill:currentColor;fill-opacity:1;stroke:none;color:#050505;opacity:.7"/>
    <path d="M6.5 5a1.5 1.5 0 1 0 0 3 1.5 1.5 0 0 0 0-3zm0 6a1.5 1.5 0 1 0 0 3 1.5 1.5 0 0 0 0-3z" style="opacity:1;fill:#add49f;fill-opacity:1;stroke:none"/>
    <path d="M6.5 17a1.5 1.5 0 1 0 0 3 1.5 1.5 0 0 0 0-3zM19 20v1h2v-1h-2z" style="opacity:1;fill:#d98c8c;fill-opacity:1;stroke:none"/>
</svg>
